public/library/ripple-text-light.svg

<svg width="475" height="122" viewBox="0 0 475 122" fill="none" xmlns="http://www.w3.org/2000/svg">
<g clip-path="url(#clip0_6084_5388)">
<path d="M88.6772 74.251C84.8472 72.031 80.5272 71.391 76.2472 71.251C72.6572 71.131 67.3072 68.831 67.3072 62.251C67.3278 59.8808 68.2744 57.6126 69.9448 55.9309C71.6153 54.2493 73.8771 53.2875 76.2472 53.251C80.5272 53.101 84.8472 52.461 88.6772 50.251C92.1161 48.2597 94.9706 45.3986 96.9541 41.9552C98.9375 38.5117 99.9801 34.607 99.9771 30.6331C99.9742 26.6592 98.9258 22.756 96.9372 19.3155C94.9486 15.875 92.0898 13.0182 88.6479 11.032C85.2059 9.04586 81.3021 8.00018 77.3282 8C73.3543 7.99982 69.4503 9.04514 66.0082 11.031C62.5661 13.0169 59.7071 15.8734 57.7182 19.3137C55.7293 22.7541 54.6805 26.6571 54.6772 30.631C54.6772 35.021 56.2372 39.061 58.2372 42.811C59.9072 45.961 60.7572 51.811 55.0072 55.121C52.9289 56.2774 50.4803 56.5733 48.1864 55.9452C45.8926 55.317 43.9363 53.8149 42.7372 51.761C40.4872 48.161 37.7372 44.761 33.9672 42.591C30.5238 40.6048 26.6183 39.5598 22.6432 39.561C18.6681 39.5622 14.7633 40.6095 11.3211 42.5978C7.87891 44.5861 5.02062 47.4452 3.03339 50.888C1.04617 54.3307 0 58.2359 0 62.211C0 66.1862 1.04617 70.0913 3.03339 73.534C5.02062 76.9768 7.87891 79.836 11.3211 81.8242C14.7633 83.8125 18.6681 84.8598 22.6432 84.861C26.6183 84.8622 30.5238 83.8172 33.9672 81.831C37.7672 79.631 40.4872 76.261 42.7372 72.661C44.5872 69.661 49.1972 65.941 55.0072 69.301C57.0479 70.5235 58.5281 72.4972 59.1302 74.7987C59.7322 77.1001 59.408 79.5459 58.2272 81.611C56.2272 85.361 54.6772 89.401 54.6772 93.791C54.6774 97.7681 55.7245 101.675 57.713 105.119C59.7016 108.564 62.5616 111.424 66.0057 113.413C69.4498 115.401 73.3568 116.449 77.3339 116.449C81.311 116.45 85.2182 115.404 88.6629 113.416C92.1076 111.428 94.9684 108.569 96.958 105.125C98.9475 101.681 99.9957 97.7747 99.9972 93.7976C99.9986 89.8205 98.9533 85.9131 96.9662 82.4679C94.9792 79.0228 92.1204 76.1613 88.6772 74.171V74.251Z" fill="#008CFF"/>
<path d="M131.16 27.8197H146.93V35.2597C149.033 32.7011 151.675 30.6385 154.667 29.2193C157.66 27.8001 160.928 27.0592 164.24 27.0497C166.486 26.9655 168.732 27.2252 170.9 27.8197V45.8197C170.9 45.8197 168.72 45.0497 163.47 45.0497C154.47 45.0497 148.47 51.0497 148.47 60.0497V96.7997H131.16V27.8197ZM215.91 27.8197H231.68V34.4897C237.064 29.7361 243.988 27.0932 251.17 27.0497C268.48 27.0497 283.48 42.0497 283.48 62.3097C283.48 82.5697 268.48 97.5697 251.17 97.5697C244.556 97.5865 238.167 95.1697 233.22 90.7797V121.55H215.91V27.8197ZM266.17 62.3097C266.17 51.0297 258.73 43.5897 248.99 43.5897C239.25 43.5897 231.68 50.9997 231.68 62.3097C231.68 73.6197 239.24 80.9997 249 80.9997C258.76 80.9997 266.17 73.5997 266.17 62.3097ZM296.17 27.8197H311.94V34.4897C317.326 29.7385 324.248 27.0959 331.43 27.0497C348.74 27.0497 363.74 42.0497 363.74 62.3097C363.74 82.5697 348.74 97.5697 331.43 97.5697C324.817 97.5809 318.43 95.1648 313.48 90.7797V121.55H296.17V27.8197ZM346.44 62.3097C346.44 51.0297 339 43.5897 329.25 43.5897C319.5 43.5897 311.94 50.9997 311.94 62.3097C311.94 73.6197 319.51 80.9997 329.25 80.9997C338.99 80.9997 346.44 73.5997 346.44 62.3097ZM376.44 2.30969H393.75V96.7997H376.44V2.30969ZM406.44 62.3097C406.44 42.8297 422.21 27.0497 440.93 27.0497C459 27.0497 474 41.2897 474 62.3097C473.928 64.5934 473.67 66.8676 473.23 69.1097H425.16C426.7 75.7797 432 80.9997 440.93 80.9997C449.01 80.9997 452.22 77.2897 452.22 77.2897H470.94C467.47 86.2897 456.7 97.5397 440.94 97.5397C422.21 97.5697 406.44 81.7997 406.44 62.3097ZM457.44 57.0597C456.653 53.2546 454.578 49.8372 451.565 47.3836C448.553 44.93 444.786 43.5903 440.9 43.5903C437.015 43.5903 433.248 44.93 430.235 47.3836C427.222 49.8372 425.147 53.2546 424.36 57.0597H457.44ZM181 9.73969C181 7.13791 182.034 4.6427 183.873 2.80297C185.713 0.963238 188.208 -0.0703125 190.81 -0.0703125C193.412 -0.0703125 195.907 0.963238 197.747 2.80297C199.587 4.6427 200.62 7.13791 200.62 9.73969C200.62 12.3415 199.587 14.8367 197.747 16.6764C195.907 18.5161 193.412 19.5497 190.81 19.5497C188.208 19.5497 185.713 18.5161 183.873 16.6764C182.034 14.8367 181 12.3415 181 9.73969ZM182.16 27.8197H199.5V96.8197H182.19L182.16 27.8197Z" fill="black"/>
</g>
<defs>
<clipPath id="clip0_6084_5388">
<rect width="474.01" height="121.55" fill="white"/>
</clipPath>
</defs>
</svg>

<svg xmlns="http://www.w3.org/2000/svg" width="475" height="122" fill="none" viewBox="0 0 475 122"><g clip-path="url(#a)"><path fill="#008cff" d="M88.677 74.251c-3.83-2.22-8.15-2.86-12.43-3-3.59-.12-8.94-2.42-8.94-9a9.08 9.08 0 0 1 8.94-9c4.28-.15 8.6-.79 12.43-3a22.65 22.65 0 1 0-34-19.62c0 4.39 1.56 8.43 3.56 12.18 1.67 3.15 2.52 9-3.23 12.31a9.09 9.09 0 0 1-12.27-3.36c-2.25-3.6-5-7-8.77-9.17a22.65 22.65 0 1 0 0 39.24c3.8-2.2 6.52-5.57 8.77-9.17 1.85-3 6.46-6.72 12.27-3.36a9.09 9.09 0 0 1 3.22 12.31c-2 3.75-3.55 7.79-3.55 12.18a22.66 22.66 0 0 0 22.657 22.658 22.65 22.65 0 0 0 19.624-11.324 22.66 22.66 0 0 0-8.28-30.954z"/><path fill="#000" d="M131.16 27.82h15.77v7.44a22.5 22.5 0 0 1 17.31-8.21 22 22 0 0 1 6.66.77v18s-2.18-.77-7.43-.77c-9 0-15 6-15 15V96.8h-17.31zm84.75 0h15.77v6.67a29.72 29.72 0 0 1 19.49-7.44c17.31 0 32.31 15 32.31 35.26s-15 35.26-32.31 35.26a26.94 26.94 0 0 1-17.95-6.79v30.77h-17.31zm50.26 34.49c0-11.28-7.44-18.72-17.18-18.72S231.68 51 231.68 62.31 239.24 81 249 81s17.17-7.4 17.17-18.69m30-34.49h15.77v6.67a29.75 29.75 0 0 1 19.49-7.44c17.31 0 32.31 15 32.31 35.26s-15 35.26-32.31 35.26a27 27 0 0 1-17.95-6.79v30.77h-17.31zm50.27 34.49c0-11.28-7.44-18.72-17.19-18.72S311.94 51 311.94 62.31 319.51 81 329.25 81s17.19-7.4 17.19-18.69m30-60h17.31V96.8h-17.31zm30 60c0-19.48 15.77-35.26 34.49-35.26C459 27.05 474 41.29 474 62.31a42 42 0 0 1-.77 6.8h-48.07C426.7 75.78 432 81 440.93 81c8.08 0 11.29-3.71 11.29-3.71h18.72c-3.47 9-14.24 20.25-30 20.25-18.73.03-34.5-15.74-34.5-35.23m51-5.25a16.89 16.89 0 0 0-33.08 0zM181 9.74a9.813 9.813 0 0 1 9.81-9.81A9.81 9.81 0 1 1 181 9.74m1.16 18.08h17.34v69h-17.31z"/></g><defs><clipPath id="a"><path fill="#fff" d="M0 0h474.01v121.55H0z"/></clipPath></defs></svg>
